!!!COM:	Bach, Johann Sebastian
!!!CDT:	1685/02/21/-1750/07/28/
!!!OTL@@DE:	Mit Fried und Freud ich fahr dahin
!!!SCT:	BWV 83/5
!!!PC#:	325
!!!AGN:	chorale
**kern	**kern	**kern	**kern
*ICvox	*ICvox	*ICvox	*ICvox
*Ibass	*Itenor	*Ialto	*Isoprn
*I"Bass	*I"Tenor	*I"Alto	*I"Soprano
*clefF4	*clefGv2	*clefG2	*clefG2
*k[]	*k[]	*k[]	*k[]
*d:dor	*d:dor	*d:dor	*d:dor
*M4/4	*M4/4	*M4/4	*M4/4
*met(c)	*met(c)	*met(c)	*met(c)
*MM100	*MM100	*MM100	*MM100
4D	4F	4A	4d
=1	=1	=1	=1
4C#	4A	4e	4a
4D	4d	4f	4a
4E	4B	4e	4g
8F#L	8AL	8dL	4dd
8G#J	8BJ	8eJ	.
=2	=2	=2	=2
4A	8cnXL	8eL	4ccnX
.	8dJ	8f#J	.
4E	8eL	4g#	4b
.	8dJ	.	.
4AA;	4c;	4e;	4a;
4E	[4c	4g	4cc
=3	=3	=3	=3
4D	8cL]	4fnX	4a
.	8BJ	.	.
8EL	4A	4f	4cc
8FJ	.	.	.
2E	8G#	8BL	8bL
.	4A	8cJ	8aJ
.	.	4d	4b
.	8G#	.	.
=4	=4	=4	=4
2.AA;	2.A;	2.c#;	2.a;
4D	4F	4d	4b
=5	=5	=5	=5
4CnX	4G	4e	4ccnX
4D	4d	4f	4b
4E	4c	4g	4cc
4F	4c	4f	4a
=6	=6	=6	=6
4G	4B-	4e	4g
4A	4c	8fL	4f
.	.	8eJ	.
4B	4G	4d	4g
4c	4G	4c	4e
=7	=7	=7	=7
2G;	2G;	2B;	2d;
4.C#	4A	4.e	4.a
.	4A	.	.
8AA	.	8c#	8g
=8	=8	=8	=8
4.D	8AL	8dL	8fL
.	8GJ	8cnXJ	8eJ
.	4F	4B-	4d
8E	.	.	.
2F;	2F;	2A;	2c;
=9	=9	=9	=9
4C#	4A	4e	4a
4D	4A	4f	4f
4E	4G	4g	4ccnX
4F	4c	4f	4a
=10	=10	=10	=10
8GL	8B-L	8eL	8gL
8AJ	8AJ	8dJ	8fJ
4B-	4G	8c#L	4g
.	.	8dJ	.
4A;	4E;	4c#;	4a;
4AA	4A	4c#	4g
=11	=11	=11	=11
4D	8AL	8dL	4f
.	8GJ	8cnXJ	.
4GG	4F	4B-	8eL
.	.	.	8dJ
8GL	4E	4A	4c#
8FJ	.	.	.
8EL	4A	4d	4f
8DJ	.	.	.
=12	=12	=12	=12
8C#L	4.A	8eL	8eL
8DJ	.	8fJ	8dJ
4AA	.	4c#	4e
.	8G	.	.
4D;	4F#;	4A;	4d;
==	==	==	==
*-	*-	*-	*-
!!!hum2abc: -Q ''
!!!title: @{PC#}. @{OTL@@DE}
!!!YOR1: 371 vierstimmige Choralges&auml;nge von Johann Sebastian Bach, 
!!!YOR2: 4th ed. by Alfred D&ouml;rffel (Leipzig: Breitkopf und H&auml;rtel, 
!!!YOR2: c.1875). 178 pp. Plate "V.A.10".  reprint: J.S. Bach, 371 Four-Part 
!!!YOR4: Chorales (New York: Associated Music Publishers, Inc., c.1940).
!!!SMS: B&H, 4th ed, Alfred D&ouml;rffel, c.1875, plate V.A.10
!!!EED:  Craig Stuart Sapp
!!!EEV:  2009/05/22
